X: 6244
T: Carolan's Cap
R: polka
M: 2/4
K: Gmixolydian
G|F/E/D/C/ EG|c>d ed|cA GE|D2 DG/F/|
F/E/D/C/ EG|cc de|EG d/c/A|G2 G||
c/d/|eg ga|ge g/e/d/c/|
eg ag|ed de/g/|ag/e/ g/e/d/c/|
d/c/d/e/ ge/d/|cB/c/ dc|AG G||

